X: 33942
T: Red-haired Rafter, The
R: jig
M: 6/8
K: Gmajor
|:DGA ~B3|cBA AGE|EDE GAB|c2A BGE|
DGA ~B3|cBA AGE|EDE GAB|AGF G2E:|
|:BGB dBG|~B3 dBG|~E3 EDE|
[1 GAB cBA|~B3 dBG|~B3 dBG|EDE GAB|AGF G2A:|
[2 GAB AGE|GEG AGE|BGE AGE|dBG DGB|AGF G2B||
dBG DGB|E2c BAG|DEF EFG|FGA GAB|
dBG DGB|E2c BAG|EDE GAB|AGF G2B||
dBG DGB|E2c BAG|Ddd Edd|Fdd GdG|
dBG DGB|E2c BAG|EDE GAB|AGF G3||

